X: 503
T:Torn Jacket, The
R:reel
D:Declan Masterson: Tropical Trad
Z:Henrik Norbeck id:hn-reel-448
M:C|
N:Posted to the woodenflute mailing list March 2002
K:D
~F3A dfed|cA~A2 (3Bcd ed|AF~F2 dfed|cAGE EDDE|
~F3A dfed|cA~A2 (3Bcd ec|dcde fded|cAGE EDDE:|
|:FAdf ~a3f|~g3f gfed|cA~A2 (3Bcd ef|gfed cAGE|
FAdf ~a3f|~g3f gfef|gaba gfed|cAGE EDDE:|
<end>
<start>
